X: 573
T: Weizuizui kaihua
L: 1/16
M: 2/4
K: Bb
d'2 d' c' b2 b c' [I:setbarnb 1]| 
d' f' d' c'b4 | 
b2 b d' c'2 c' d' | 
b a g df4 | 
f2 f d f2 f g | 
d'2 d' c'b4 | 
g2 f cB4 | 
c'2 b2d'4- | 
d'4g4- | 
g2 a2 g f d c | 
B8 |]

@@@ Tune index: 9447
